!!!SOCIAL_FUNCTION:	war songs
!!!PDT:	1939
!!!OTL: No_99_"I_Will_Not_Cut_Off_Your_Head".krn
!!!LANG: Non-Tone
!!!LING_GROUP: Wakashan
!!!REG: Pacific Northwest
**kern
*staff1
=1-
*clefF4
*k[b-e-a-d-]
*M2/4
4r
8r
16r
16A-\
=2
8c-\L
24c-\K
12c-\J
8.A-\L
16A-\Jk
=3
12A-\L
12A-\
12A-\J
16F\
16r
16A-\LL
16A-\JJ
=4
12A-\L
12A-\
12A-\J
12F\L
24F\L
24E-\J
12F\J
=5
12A-\L
12A-\
12A-\J
8F\
16r
16F\
=6
12F\L
12F\
12F\J
16E-\
16r
16F\LL
16F\JJ
=7
12F\L
12F\
12F\J
8F\L
16A-\L
16A-\JJ
=8
12B-\L
12B-\
12B-\J
8A-\
16r
16A-\
=9
12A-\L
12A-\
12A-\J
16F\
16r
16A-\LL
16A-\JJ
=10
12A-\L
12A-\
12A-\J
12F\L
24F\L
24E-\J
12F\J
=11
12A-\L
12A-\
12A-\J
8F\
16r
16F\
=12
12F\L
12F\
12F\J
16E-\
16r
16F\LL
16F\JJ
=13
12F\L
12F\
12F\J
8F\L
8A-\J
==
*-
